assets/images/logo.svg

<svg width="116" height="54" viewBox="0 0 116 54" fill="none" xmlns="http://www.w3.org/2000/svg">
<path fill-rule="evenodd" clip-rule="evenodd" d="M24.468 34.7217L26.5482 28.6065L28.5295 34.7217H24.468ZM25.1614 23.6315L19.2178 40.5259H22.5858L23.5764 37.5202H29.421L30.4116 40.5259H33.7797L27.737 23.6315H25.1614ZM59.0401 1.14012C65.281 1.14012 71.3237 1.5547 76.9701 2.48752C69.9368 0.932822 62.012 0 53.5918 0C23.9727 0 0 11.4012 0 25.3935C0 32.4415 6.0427 38.7639 15.8497 43.428C7.92485 38.9712 3.07088 33.2706 3.07088 27.0518C3.07088 12.7486 28.1332 1.24376 59.0401 1.14012ZM38.2374 40.5259H35.0675V23.6315H38.2374L42.497 32.7524L46.7566 23.6315H49.9266V40.5259H46.7566V30.6795L43.5867 37.1056H41.4073L38.2374 30.6795V40.5259ZM55.6721 23.6315V40.5259H52.5021V23.6315H55.6721ZM66.965 33.8925H64.0922V31.0941H70.1349V33.4779C70.1349 36.0691 69.7387 37.4165 68.649 38.6603C67.5594 39.904 65.9744 40.6296 64.1913 40.6296C62.5073 40.6296 60.9223 40.0077 59.8326 38.7639C59.1392 37.9347 58.5448 36.8983 58.4458 35.9655C58.3467 35.2399 58.2477 33.9962 58.2477 32.0269V31.3013C58.2477 27.881 58.5448 26.5336 59.8326 25.2898C61.0214 24.0461 62.4082 23.4242 64.2904 23.4242C65.281 23.4242 66.1725 23.5278 66.8659 23.9424C67.6584 24.2534 68.1537 24.6679 69.1443 25.6008L66.965 27.881C66.2716 27.1555 65.9744 26.9482 65.4791 26.6372C65.1819 26.5336 64.6866 26.4299 64.1913 26.4299C63.2997 26.4299 62.6063 26.7409 62.111 27.3628C61.8138 27.7774 61.5167 28.2956 61.5167 28.7102C61.4176 29.4357 61.3185 30.5758 61.3185 32.1305V32.6488C61.3185 35.3436 61.5167 36.2764 62.111 36.8983C62.6063 37.5202 63.2997 37.7275 64.0922 37.7275C65.8753 37.7275 66.965 36.4837 66.965 34.5144V33.8925ZM81.2297 31.7159C81.2297 35.1363 81.1307 35.9655 80.4372 36.7946C79.9419 37.4165 79.2485 37.7275 78.357 37.7275C77.5645 37.7275 76.871 37.4165 76.2767 36.7946C75.3851 35.8618 75.4842 33.8925 75.4842 31.8196C75.4842 29.7466 75.4842 28.1919 76.2767 27.2591C76.772 26.6372 77.5645 26.3263 78.357 26.3263C79.1494 26.3263 79.9419 26.6372 80.4372 27.2591C81.1307 28.0883 81.2297 28.9175 81.2297 31.7159ZM84.4987 30.8868V32.0269C84.4987 34.4108 84.5978 36.8983 82.8147 38.7639C81.626 40.0077 80.14 40.6296 78.357 40.6296C76.5739 40.6296 75.088 40.0077 73.8992 38.7639C72.2152 37.0019 72.3143 34.2035 72.3143 32.3378V31.405C72.3143 27.9846 72.7105 26.6372 73.8992 25.3935C75.088 24.1497 76.5739 23.5278 78.357 23.5278C80.14 23.5278 81.626 24.1497 82.8147 25.3935C84.0034 26.5336 84.4987 28.0883 84.4987 30.8868ZM93.7114 24.4607C93.5132 24.357 93.7114 24.1497 93.9095 24.1497C94.1076 24.1497 94.5038 24.0461 94.5038 23.8388C94.5038 23.7351 94.4048 23.5278 94.5038 23.4242C94.5038 23.3205 94.3057 23.1132 94.2067 23.0096C94.1076 22.906 93.9095 22.8023 94.2067 22.595C94.5038 22.3877 94.801 22.8023 95.0982 22.595C95.3954 22.2841 94.9001 22.0768 94.9001 21.7658C94.801 21.5585 94.5038 21.3512 94.5038 21.144C94.5038 20.9367 94.702 20.833 94.702 20.4184C94.6029 20.0038 94.0085 19.382 94.0085 19.382C94.0085 19.071 94.3057 18.7601 94.6029 18.7601C94.801 18.7601 94.9991 18.8637 95.2963 18.8637C95.4944 18.8637 95.4944 18.4491 95.4944 18.2418C95.3954 18.0345 95.1973 17.62 95.1973 17.62C95.1973 17.62 94.801 16.6871 94.801 16.3762C94.702 16.1689 94.6029 15.9616 94.3057 15.6507C94.2067 15.547 94.3057 15.3397 94.5038 15.3397C94.801 15.3397 94.702 15.547 94.9001 15.858C95.0982 16.0653 95.1973 16.0653 95.3954 16.0653C95.5935 16.0653 95.7916 15.858 95.9898 15.7543C96.2869 15.2361 97.1785 15.9616 97.3766 15.9616C97.4757 15.9616 97.5747 15.7543 97.5747 15.7543C97.5747 15.7543 97.4757 15.4434 97.2775 15.1324C97.0794 14.9251 96.8813 14.6142 96.8813 14.6142C96.8813 14.6142 96.1879 13.6814 96.0888 13.5777C95.9898 13.4741 95.1973 12.7486 94.9991 12.5413C94.801 12.334 94.1076 11.9194 94.0085 11.8157C93.9095 11.6084 93.8104 11.2975 94.0085 11.1939C94.2067 11.0902 94.6029 11.6084 94.6029 11.6084L94.9991 11.8157C94.9991 11.8157 95.3954 11.7121 95.5935 11.8157C95.7916 11.9194 95.8907 11.8157 96.0888 11.8157C96.2869 11.8157 96.386 11.7121 96.6832 11.6084C96.9804 11.6084 97.0794 11.6084 97.2775 11.6084C97.4757 11.7121 97.8719 11.6084 98.2681 11.5048C98.6644 11.4012 98.8625 11.5048 98.9616 11.2975C99.0606 11.0902 98.6644 10.6756 98.6644 10.572C98.5653 10.4683 98.07 10.261 97.971 10.0537C97.7728 9.84645 97.6738 9.63916 97.5747 9.53551C97.4757 9.43186 97.0794 9.53551 96.8813 9.63916C96.6832 9.63916 96.7822 9.84645 96.386 9.7428C96.1879 9.63916 95.8907 9.7428 95.6926 9.9501C95.5935 10.0537 95.2963 10.3647 94.9991 10.3647C94.9001 10.261 94.6029 10.261 94.3057 10.0537C94.1076 9.9501 93.7114 9.7428 93.6123 9.63916C93.3151 9.43186 93.117 9.7428 92.8198 9.63916C92.1264 9.32822 91.6311 9.43186 91.532 9.32822C91.433 9.12092 91.532 8.80998 91.433 8.60269C91.3339 8.39539 91.0367 8.39539 91.0367 8.29175C91.0367 8.1881 90.8386 7.98081 90.7395 7.77351C90.6405 7.56622 90.8386 7.35893 90.7395 7.15163C90.7395 6.94434 90.3433 6.84069 90.3433 6.84069C90.3433 6.84069 90.1452 6.73704 89.9471 6.84069C89.7489 6.94434 89.7489 6.94434 89.5508 7.15163C89.4518 7.35893 89.3527 7.56622 89.2536 7.77351C89.1546 8.08445 89.3527 8.91363 89.4518 9.12092C89.5508 9.22457 89.7489 9.32822 90.0461 9.43186C90.3433 9.53551 90.3433 9.32822 90.5414 9.43186C90.7395 9.63916 90.9377 9.63916 91.0367 9.7428C91.1358 9.84645 90.3433 9.9501 89.9471 9.84645C89.7489 9.84645 89.2536 10.0537 89.2536 10.0537C89.2536 10.0537 88.8574 10.0537 88.4611 10.261C87.8668 10.572 87.6687 11.0902 87.6687 11.1939C87.6687 11.4012 87.5696 11.5048 87.4705 11.8157C87.3715 12.1267 87.2724 12.5413 87.2724 12.5413C87.2724 12.5413 87.0743 12.9559 86.9752 13.1631C86.8762 13.3704 86.7771 13.8887 86.7771 13.8887C86.7771 13.8887 86.678 14.3033 86.8762 14.5106C87.1734 14.7179 86.9752 15.0288 86.4799 14.9251C86.2818 14.9251 86.0837 14.9251 85.8856 15.1324C85.5884 15.4434 85.0931 16.5835 85.0931 16.5835C85.0931 16.5835 84.895 17.5163 84.7959 18.0345C84.7959 18.2418 84.5978 18.8637 84.4987 19.2783C84.4987 19.382 84.2015 19.9002 84.3006 20.3148C84.4987 20.4184 85.0931 19.6929 85.1921 19.4856C85.2912 19.2783 85.7865 18.2418 85.8856 17.9309C86.0837 17.4127 86.678 16.8944 86.8762 16.5835C87.0743 16.2726 86.9752 15.9616 87.4705 15.4434C88.0649 14.8215 87.9658 14.9251 88.0649 14.7179C88.263 14.4069 88.8574 14.1996 88.9565 14.1996C89.5508 14.096 89.5508 14.7179 90.0461 14.9251C90.3433 15.0288 90.6405 15.3397 90.6405 15.547C90.6405 15.7543 90.3433 15.9616 90.1452 16.3762C90.0461 16.5835 90.3433 17.309 90.4424 17.5163C90.5414 17.7236 90.8386 18.2418 90.9377 18.5528C91.0367 18.8637 91.3339 19.071 91.8292 18.9674C92.2254 18.9674 92.5226 19.4856 91.532 19.382C91.2348 19.382 90.8386 19.4856 90.7395 19.4856C90.5414 19.4856 90.3433 19.4856 90.0461 19.5893C89.6499 19.6929 89.7489 20.0038 89.7489 20.2111C89.848 20.5221 89.9471 20.7294 90.1452 21.0403C90.3433 21.3512 90.4424 22.0768 90.5414 22.1804C90.6405 22.3877 90.2442 22.4914 90.3433 22.8023C90.3433 23.0096 90.5414 23.1132 90.6405 23.2169C90.7395 23.3205 91.0367 23.3205 91.532 23.1132C91.8292 23.0096 92.0273 23.4242 91.8292 23.5278C91.7301 23.6315 91.1358 23.7351 91.0367 24.0461C90.9377 24.2534 91.3339 24.8752 90.9377 25.2898C90.8386 25.3935 90.9377 26.119 90.9377 26.3263C90.9377 26.5336 91.2348 26.8445 91.3339 26.9482C91.433 27.0518 91.532 27.7774 91.532 27.881C91.532 28.0883 91.532 28.2956 91.7301 28.5029C91.8292 28.6065 91.9283 28.8138 92.0273 28.9175C92.0273 29.0211 91.9283 29.2284 91.7301 29.1248C91.6311 29.0211 91.2348 29.1248 91.0367 29.2284C90.8386 29.3321 90.5414 29.7466 90.4424 29.9539C90.2442 30.3685 90.2442 31.1977 90.4424 31.5086C90.5414 31.7159 90.7395 31.8196 90.7395 32.0269C90.7395 32.3378 90.8386 32.4415 90.6405 32.856C90.6405 32.9597 90.5414 33.2706 90.5414 33.5816C90.4424 34.3071 91.532 37.1056 91.9283 37.6238C92.4236 38.142 93.216 39.5931 93.7114 40.4223C94.2067 41.2514 94.1076 40.9405 94.0085 41.2514C93.9095 41.5624 93.7114 41.666 93.4142 41.8733C93.117 42.0806 93.0179 42.5989 92.8198 42.8061C92.7207 43.1171 91.9283 43.8426 91.9283 43.9463C91.9283 44.0499 91.2348 44.9827 91.6311 45.19C92.0273 45.3973 92.3245 44.9827 92.6217 44.7754C93.4142 44.1536 93.8104 43.428 94.4048 43.2207C95.0982 43.0134 95.2963 42.5989 95.3954 42.2879C95.4945 41.977 95.4944 41.8733 95.2963 41.5624C95.1973 41.3551 95.0982 40.8369 95.0982 40.6296C94.9991 40.4223 94.702 39.904 94.6029 39.8004C94.5038 39.6967 94.3057 38.453 94.4048 38.3493C94.5038 38.2457 94.5038 37.9347 94.6029 37.7275C94.702 37.5202 94.5038 37.2092 94.4048 37.1056C94.2067 37.0019 94.1076 36.7946 94.0085 36.38C93.9095 35.8618 94.1076 35.9655 94.4048 35.7582C94.702 35.5509 94.3057 35.3436 94.4048 34.929C94.5038 34.4108 93.9095 34.3071 93.6123 33.8925C93.3151 33.4779 93.117 33.0633 93.117 32.856C93.117 32.6488 92.9189 32.2342 92.8198 32.1305C92.7207 31.9232 92.6217 31.8196 92.6217 31.5086C92.6217 31.3013 92.9189 31.0941 93.0179 30.8868C93.117 30.6795 92.9189 30.5758 92.9189 30.4722C92.9189 30.3685 92.9189 30.0576 93.117 29.9539C93.3151 29.8503 93.5132 29.9539 93.6123 30.0576C93.7114 30.1612 93.8104 30.2649 93.8104 30.7831C93.8104 30.9904 93.8104 30.9904 94.1076 31.3013C94.4048 31.6123 94.9991 31.8196 95.5935 31.6123C95.6926 31.5086 96.0888 31.405 96.2869 31.1977C96.6832 30.8868 97.0794 31.0941 97.4757 31.0941C97.8719 31.0941 98.2681 31.0941 98.5653 30.7831C98.7635 30.6795 98.8625 30.4722 98.9616 30.2649C98.9616 30.0576 99.4569 29.7466 99.5559 29.5393C99.655 29.3321 99.655 29.0211 99.4569 28.9175C99.2588 28.8138 99.0606 29.1248 98.7634 29.1248C98.4663 29.1248 98.4663 29.0211 98.2681 28.9175C98.07 28.8138 97.8719 28.9175 97.7728 29.1248C97.6738 29.2284 97.2775 29.2284 97.2775 28.9175C97.2775 28.5029 96.9804 28.3992 96.9804 28.0883C96.8813 27.6737 96.5841 27.4664 96.4851 27.2591C96.2869 27.0518 96.2869 26.8445 95.9898 26.5336C95.6926 26.2227 95.5935 25.9117 95.2963 25.8081C95.0982 25.7044 94.801 24.7716 94.5038 24.7716C94.3057 24.357 93.9095 24.5643 93.7114 24.4607ZM102.627 13.1631C102.528 13.1631 102.231 13.1631 101.933 13.0595C101.636 12.9559 100.547 12.334 100.348 12.2303C100.15 12.1267 99.5559 11.8157 99.4569 11.7121C99.2588 11.4012 99.4569 11.0902 99.5559 10.9866C99.5559 10.8829 99.7541 10.572 99.8531 10.572C100.051 10.572 100.15 10.8829 100.051 11.0902C99.9522 11.2975 100.15 11.5048 100.547 11.6084C100.646 11.6084 100.943 11.6084 101.042 11.6084C101.141 11.6084 101.438 11.6084 101.438 11.5048C101.537 11.5048 101.537 11.6084 101.537 11.8157C101.537 12.023 101.735 12.2303 102.032 12.334C102.231 12.4376 102.528 12.5413 102.627 12.6449C102.726 12.7486 103.023 12.7486 102.924 12.9559C103.023 13.0595 102.726 13.1631 102.627 13.1631ZM105.103 35.6545C105.202 35.7582 104.41 36.7946 103.915 36.7946C103.419 36.7946 103.221 36.38 103.122 36.0691C103.023 35.7582 102.627 34.8253 102.528 34.5144C102.429 34.2035 102.032 33.6852 102.032 33.6852C102.032 33.6852 101.24 32.6488 100.844 32.0269C100.447 31.5086 99.7541 31.0941 99.7541 30.6795C99.655 30.2649 100.051 30.0576 100.348 29.8503C100.646 29.7466 100.943 29.4357 101.141 29.3321C101.339 29.2284 101.537 29.0211 101.735 29.0211C101.933 28.9175 102.132 29.1248 101.834 29.4357C101.537 29.643 102.032 29.643 102.132 29.9539C102.231 30.1612 101.636 30.5758 101.834 31.0941C101.933 31.5086 102.429 31.7159 102.429 32.2342C102.528 32.7524 103.023 33.167 103.122 33.3743C103.221 33.5816 103.32 33.8925 103.518 34.0998C103.617 34.2035 103.716 34.3071 103.816 34.5144C103.915 34.929 103.716 34.8253 103.617 34.929C103.617 35.0326 103.617 35.1363 103.816 35.4472C104.014 35.7582 104.311 35.7582 104.41 35.6545C104.509 35.5509 105.004 35.5509 105.103 35.6545ZM112.929 20.1075C114.91 22.8023 116 25.6008 116 28.6065C116 42.5989 92.0273 54 62.4082 54C51.6106 54 41.5064 52.4453 33.0863 49.8541C40.813 51.7198 49.6294 52.7562 59.0401 52.7562C89.9471 52.7562 114.91 41.1478 114.91 26.9482C114.91 24.5643 114.217 22.2841 112.929 20.1075Z" fill="#1F1F1F"/>
</svg>

<svg width="116" height="54" viewBox="0 0 116 54" fill="none" xmlns="http://www.w3.org/2000/svg"><path fill-rule="evenodd" clip-rule="evenodd" d="m24.468 34.722 2.08-6.116 1.982 6.116h-4.062Zm.693-11.09-5.943 16.894h3.368l.99-3.006h5.845l.99 3.006h3.369L27.737 23.63h-2.576ZM59.041 1.14c6.24 0 12.283.415 17.93 1.348C69.936.933 62.011 0 53.59 0 23.974 0 0 11.401 0 25.393c0 7.048 6.043 13.37 15.85 18.035C7.925 38.971 3.07 33.271 3.07 27.052c0-14.303 25.063-25.808 55.97-25.912ZM38.236 40.526h-3.17V23.63h3.17l4.26 9.121 4.26-9.12h3.17v16.894h-3.17v-9.847l-3.17 6.427h-2.18l-3.17-6.427v9.847ZM55.672 23.63v16.895h-3.17V23.63h3.17Zm11.293 10.261h-2.873v-2.798h6.043v2.384c0 2.591-.396 3.938-1.486 5.182-1.09 1.244-2.675 1.97-4.458 1.97-1.684 0-3.269-.622-4.358-1.866-.694-.83-1.288-1.866-1.387-2.799-.1-.725-.198-1.969-.198-3.938V31.3c0-3.42.297-4.767 1.585-6.011 1.188-1.244 2.575-1.866 4.457-1.866.991 0 1.882.104 2.576.518.792.311 1.288.726 2.278 1.659l-2.179 2.28c-.693-.726-.99-.933-1.486-1.244a4.22 4.22 0 0 0-1.288-.207c-.891 0-1.585.31-2.08.933-.297.414-.594.933-.594 1.347-.1.726-.199 1.866-.199 3.42v.519c0 2.695.199 3.627.793 4.25.495.621 1.189.828 1.981.828 1.783 0 2.873-1.243 2.873-3.213v-.622Zm14.265-2.176c0 3.42-.1 4.25-.793 5.079-.495.621-1.188.932-2.08.932-.793 0-1.486-.31-2.08-.932-.892-.933-.793-2.903-.793-4.975 0-2.073 0-3.628.793-4.56.495-.623 1.287-.934 2.08-.934.792 0 1.585.311 2.08.933.694.83.793 1.659.793 4.457Zm3.269-.83v1.14c0 2.385.099 4.872-1.684 6.738-1.189 1.244-2.675 1.866-4.458 1.866-1.783 0-3.269-.622-4.458-1.866-1.684-1.762-1.585-4.56-1.585-6.426v-.933c0-3.42.397-4.768 1.585-6.012 1.189-1.243 2.675-1.865 4.458-1.865 1.783 0 3.269.622 4.458 1.866 1.188 1.14 1.684 2.694 1.684 5.493Zm9.212-6.425c-.198-.104 0-.311.198-.311.199 0 .595-.104.595-.311 0-.104-.1-.311 0-.415 0-.104-.198-.31-.297-.414-.1-.104-.297-.208 0-.415s.594.207.891 0c.297-.31-.198-.518-.198-.83-.099-.207-.396-.414-.396-.621 0-.207.198-.311.198-.726-.1-.414-.694-1.036-.694-1.036 0-.311.298-.622.595-.622.198 0 .396.104.693.104.198 0 .198-.415.198-.622l-.297-.622s-.396-.933-.396-1.244a2.395 2.395 0 0 0-.495-.725c-.1-.104 0-.311.198-.311.297 0 .198.207.396.518.198.207.297.207.495.207.199 0 .397-.207.595-.31.297-.519 1.189.207 1.387.207.099 0 .198-.208.198-.208s-.1-.31-.297-.622c-.199-.207-.397-.518-.397-.518s-.693-.933-.792-1.036c-.1-.104-.892-.83-1.09-1.037-.198-.207-.891-.622-.99-.725-.1-.208-.199-.519 0-.622.198-.104.594.414.594.414l.396.208s.396-.104.595 0c.198.103.297 0 .495 0s.297-.104.594-.208h.594c.199.104.595 0 .991-.103.396-.104.594 0 .694-.208.099-.207-.298-.621-.298-.725-.099-.104-.594-.311-.693-.518-.198-.208-.297-.415-.396-.518-.1-.104-.496 0-.694.103-.198 0-.099.207-.495.104-.198-.104-.495 0-.693.207-.1.104-.397.415-.694.415-.099-.104-.396-.104-.693-.311-.198-.104-.595-.311-.694-.415-.297-.207-.495.104-.792 0-.694-.31-1.189-.207-1.288-.31-.099-.208 0-.519-.099-.726-.1-.208-.396-.208-.396-.311 0-.104-.198-.311-.297-.518-.1-.208.099-.415 0-.622 0-.208-.397-.311-.397-.311s-.198-.104-.396 0c-.198.103-.198.103-.396.31l-.297.623c-.1.31.099 1.14.198 1.347.099.104.297.207.594.31.297.105.297-.103.495 0 .199.208.397.208.496.312.099.103-.694.207-1.09.103-.198 0-.693.208-.693.208s-.397 0-.793.207c-.594.311-.792.83-.792.933 0 .207-.1.31-.198.622-.1.31-.199.725-.199.725l-.297.622c-.099.207-.198.726-.198.726s-.099.414.1.622c.296.207.098.518-.397.414-.198 0-.396 0-.594.207-.298.311-.793 1.452-.793 1.452s-.198.932-.297 1.45c0 .208-.198.83-.297 1.244 0 .104-.297.622-.198 1.037.198.103.792-.622.891-.83.1-.207.595-1.243.694-1.554.198-.518.792-1.037.99-1.348.198-.31.1-.621.594-1.14.595-.621.496-.518.595-.725.198-.311.792-.518.892-.518.594-.104.594.518 1.09.725.296.104.594.415.594.622 0 .207-.298.415-.496.83-.099.207.198.932.297 1.14.1.207.397.725.496 1.036.099.31.396.518.891.414.396 0 .694.519-.297.415-.297 0-.693.104-.792.104-.199 0-.397 0-.694.103-.396.104-.297.415-.297.622.099.311.198.518.396.83.198.31.297 1.036.396 1.14.1.207-.297.31-.198.621 0 .208.198.311.297.415.1.104.397.104.892-.104.297-.103.495.311.297.415-.099.104-.693.207-.792.518-.1.207.297.83-.1 1.244-.098.104 0 .829 0 1.036 0 .208.298.518.397.622.099.104.198.83.198.933 0 .207 0 .415.198.622.1.104.198.31.297.415 0 .103-.099.31-.297.207-.099-.104-.495 0-.693.103-.198.104-.496.519-.595.726-.198.415-.198 1.244 0 1.555.1.207.298.31.298.518 0 .31.099.414-.1.829 0 .104-.099.415-.099.726-.099.725.991 3.524 1.387 4.042.496.518 1.288 1.97 1.783 2.798.496.83.397.519.297.83-.099.31-.297.414-.594.621-.297.208-.396.726-.594.933-.1.311-.892 1.037-.892 1.14 0 .104-.693 1.037-.297 1.244.396.207.694-.207.99-.415.793-.621 1.19-1.347 1.784-1.554.693-.208.891-.622.99-.933.1-.311.1-.415-.099-.726-.099-.207-.198-.725-.198-.932-.099-.208-.396-.726-.495-.83-.1-.103-.297-1.347-.198-1.45.099-.104.099-.415.198-.623.099-.207-.1-.518-.198-.621-.198-.104-.297-.311-.397-.726-.099-.518.1-.415.397-.622.297-.207-.1-.414 0-.829.099-.518-.496-.622-.793-1.037-.297-.414-.495-.829-.495-1.036 0-.207-.198-.622-.297-.726-.1-.207-.198-.31-.198-.621 0-.208.297-.415.396-.622.099-.207-.1-.311-.1-.415 0-.104 0-.414.199-.518.198-.104.396 0 .495.104.1.103.198.207.198.725 0 .207 0 .207.298.518.297.311.891.519 1.486.311.099-.103.495-.207.693-.414.396-.311.792-.104 1.189-.104.396 0 .792 0 1.09-.31.197-.104.296-.312.396-.52 0-.206.495-.517.594-.725.099-.207.099-.518-.1-.622-.197-.103-.395.208-.693.208-.297 0-.297-.104-.495-.207-.198-.104-.396 0-.495.207-.1.103-.495.103-.495-.207 0-.415-.298-.519-.298-.83-.099-.414-.396-.622-.495-.829-.198-.207-.198-.415-.495-.725-.297-.311-.396-.622-.694-.726-.198-.104-.495-1.036-.792-1.036-.198-.415-.595-.208-.793-.311Zm8.916-11.298c-.099 0-.396 0-.694-.104-.297-.103-1.386-.725-1.585-.829-.198-.103-.792-.414-.891-.518-.198-.31 0-.622.099-.725 0-.104.198-.415.297-.415.198 0 .297.31.198.518-.099.207.099.415.496.518h.495c.099 0 .396 0 .396-.103.099 0 .099.103.099.31 0 .208.198.415.495.519.199.104.496.207.595.31.099.105.396.105.297.312.099.104-.198.207-.297.207Zm2.476 22.491c.099.104-.693 1.14-1.188 1.14-.496 0-.694-.414-.793-.725-.099-.31-.495-1.244-.594-1.555-.099-.31-.496-.829-.496-.829s-.792-1.036-1.188-1.658c-.397-.518-1.09-.933-1.09-1.348-.099-.414.297-.621.594-.829.298-.103.595-.414.793-.518.198-.104.396-.31.594-.31.198-.104.397.103.099.414-.297.207.198.207.298.518.099.207-.496.622-.298 1.14.099.415.595.622.595 1.14.099.518.594.933.693 1.14.099.208.198.518.396.726.099.103.198.207.298.414.099.415-.1.311-.199.415 0 .104 0 .207.199.518.198.311.495.311.594.207.099-.103.594-.103.693 0Zm7.826-15.547c1.981 2.695 3.071 5.494 3.071 8.5C116 42.599 92.027 54 62.408 54c-10.797 0-20.902-1.555-29.322-4.146 7.727 1.866 16.543 2.902 25.954 2.902 30.907 0 55.87-11.608 55.87-25.808 0-2.384-.693-4.664-1.981-6.84Z" fill="#1F1F1F"/></svg>
